icons/plexis/48/mkv-extractor-gui.svg

<svg viewBox="0 0 48 48" xmlns="http://www.w3.org/2000/svg" xmlns:xlink="http://www.w3.org/1999/xlink">
  <linearGradient id="a" gradientTransform="matrix(0 -1 1 0 -.0000015 47.999998)" gradientUnits="userSpaceOnUse" x1="1" x2="47">
    <stop offset="0" stop-color="#575757"/>
    <stop offset="1" stop-color="#616161"/>
  </linearGradient>
  <path d="m47 24c0 22.703-.297 23-23 23-22.703 0-23-.297-23-23 0-22.703.297-23 23-23 22.703 0 23 .297 23 23z" fill="url(#a)"/>
  <path d="m36 13.227l-22 3.43c-1 .34-1 .816-1 1.336 0 5.811 0 11.622 0 17.434 0 .871.793 1.572 1.773 1.572h18.65 1.803c.98 0 1.771-.701 1.771-1.572v-12.855c0-.699-.519-1.285-1.232-1.488l.234-.078-2.625-.879-.797-2.391 3.422-.57c1-.234 1-.559 1-1.168v-2c0-.445-.457-.766-1-.77zm-3.588 4.535l-.787 2.363-2.613.875h-5.346l.459-1.379 1.871-.625-.328-.109zm-10.07 1.68l.535.18.459 1.379h-2.439l-1.129-1.129m-3.244.541l.588.588h-1.109v-.5m3.531.158c.065.018.131.057.197.123l.219.219h-1.053c.018-.018.03-.036.049-.055.2-.2.392-.341.588-.287z" opacity=".1" transform=""/>
  <path d="m12 20l23-3.836c1-.234 1-.559 1-1.168v-2c0-.445-.457-.766-1-.77l-22 3.43c-1 .34-1 .816-1 1.336m0 3.01" fill="#c66f92"/>
  <path d="m13.773 20h20.453c.98 0 1.773.703 1.773 1.57v12.855c0 .871-.793 1.574-1.773 1.574h-20.453c-.98 0-1.773-.703-1.773-1.574v-12.855c0-.867.793-1.57 1.773-1.57m0 0" fill="#c66f92"/>
  <path d="m18.5 26.5l-.625 1.875-1.875.625 1.875.621.625 1.875.625-1.875 1.871-.621-1.871-.625m-.625-1.875" fill="#f9f9f9"/>
  <path d="m31.5 16.5l-.875 2.625-2.625.879 2.625.875.875 2.625.875-2.625 2.625-.875-2.625-.879m-.875-2.625" fill="#f9f9f9"/>
  <path d="m22.5 15.5l-.625 1.871-1.871.625 1.871.625.625 1.875.625-1.875 1.871-.625-1.871-.625m-.625-1.871" fill="#f9f9f9"/>
  <path d="m12.5 18h2c .277 0 .5.199.5.445v5.109c0 .246-.223.445-.5.445h-2c-.277 0-.5-.199-.5-.445v-5.109c0-.246.223-.445.5-.445m0 0" fill="#c66f92"/>
  <path d="m14.605 16.602c-.52.52-.867 1.027-.348 1.547l17.539 17.547c.523.523 1.168.316 1.691-.207.52-.52.734-1.16.211-1.68l-17.539-17.547c-.52-.523-1.031-.18-1.555.34m3.34 3.344c.266-.266.52-.43.785-.164l14.492 14.5c.266.27.055.477-.211.738-.27.266-.477.469-.738.207l-14.492-14.5c-.266-.266-.105-.516.164-.781m0 0" fill="#f9f9f9"/>
</svg>

<svg xmlns="http://www.w3.org/2000/svg" viewBox="0 0 48 48">
 <defs>
  <linearGradient id="linearGradient3764" x1="1" x2="47" gradientUnits="userSpaceOnUse" gradientTransform="matrix(0,-1,1,0,-1.5e-6,47.999998)">
   <stop style="stop-color:#575757;stop-opacity:1"/>
   <stop offset="1" style="stop-color:#616161;stop-opacity:1"/>
  </linearGradient>
 </defs>
 <g>
  
  
  
 </g>
 <g>
  <path d="m 47,24 C 47,46.703 46.703,47 24,47 1.297,47 1,46.703 1,24 1,1.297 1.297,1 24,1 46.703,1 47,1.297 47,24 z" style="fill:url(#linearGradient3764);fill-opacity:1"/>
 </g>
 <g>
  <g>
   <g transform="translate(1,1)">
    <g style="opacity:0.1">
     <!-- color: #616161 -->
     <g>
      <path d="m 36 13.227 -22 3.43 c -1 0.34 -1 0.816 -1 1.336 0 5.811 0 11.622 0 17.434 0 0.871 0.793 1.572 1.773 1.572 l 18.65 0 1.803 0 c 0.98 0 1.771 -0.701 1.771 -1.572 l 0 -12.855 c 0 -0.699 -0.519 -1.285 -1.232 -1.488 l 0.234 -0.078 -2.625 -0.879 -0.797 -2.391 3.422 -0.57 c 1 -0.234 1 -0.559 1 -1.168 l 0 -2 c 0 -0.445 -0.457 -0.766 -1 -0.77 z m -3.588 4.535 -0.787 2.363 -2.613 0.875 -5.346 0 0.459 -1.379 l 1.871 -0.625 -0.328 -0.109 z m -10.07 1.68 0.535 0.18 0.459 1.379 -2.439 0 -1.129 -1.129 m -3.244 0.541 0.588 0.588 -1.109 0 0 -0.5 m 3.531 0.158 c 0.065 0.018 0.131 0.057 0.197 0.123 l 0.219 0.219 -1.053 0 c 0.018 -0.018 0.03 -0.036 0.049 -0.055 0.2 -0.2 0.392 -0.341 0.588 -0.287 z" transform="translate(-1,-1)"/>
     </g>
    </g>
   </g>
  </g>
 </g>
 <g>
  <g>
   <!-- color: #616161 -->
   <g>
    <path d="m 12 20 23 -3.836 c 1 -0.234 1 -0.559 1 -1.168 l 0 -2 c 0 -0.445 -0.457 -0.766 -1 -0.77 l -22 3.43 c -1 0.34 -1 0.816 -1 1.336 m 0 3.01" style="fill:#c66f92;fill-opacity:1;stroke:none;fill-rule:nonzero"/>
    <path d="m 13.773,20 20.453,0 c 0.98,0 1.773,0.703 1.773,1.57 l 0,12.855 c 0,0.871 -0.793,1.574 -1.773,1.574 l -20.453,0 C 12.793,35.999 12,35.296 12,34.425 L 12,21.57 C 12,20.703 12.793,20 13.773,20 m 0,0" style="fill:#c66f92;fill-opacity:1;stroke:none;fill-rule:nonzero"/>
    <path d="M 18.5,26.5 17.875,28.375 16,29 17.875,29.621 18.5,31.496 19.125,29.621 20.996,29 19.125,28.375 M 18.5,26.5" style="fill:#f9f9f9;fill-opacity:1;stroke:none;fill-rule:nonzero"/>
    <path d="M 31.5,16.5 30.625,19.125 28,20.004 30.625,20.879 31.5,23.504 32.375,20.879 35,20.004 32.375,19.125 M 31.5,16.5" style="fill:#f9f9f9;fill-opacity:1;stroke:none;fill-rule:nonzero"/>
    <path d="m 22.5,15.5 -0.625,1.871 -1.871,0.625 1.871,0.625 0.625,1.875 0.625,-1.875 1.871,-0.625 -1.871,-0.625 M 22.5,15.5" style="fill:#f9f9f9;fill-opacity:1;stroke:none;fill-rule:nonzero"/>
    <path d="m 12.5,18 2,0 c 0.277,0 0.5,0.199 0.5,0.445 l 0,5.109 c 0,0.246 -0.223,0.445 -0.5,0.445 l -2,0 C 12.223,23.999 12,23.8 12,23.554 l 0,-5.109 C 12,18.199 12.223,18 12.5,18 m 0,0" style="fill:#c66f92;fill-opacity:1;stroke:none;fill-rule:nonzero"/>
    <path d="m 14.605,16.602 c -0.52,0.52 -0.867,1.027 -0.348,1.547 l 17.539,17.547 c 0.523,0.523 1.168,0.316 1.691,-0.207 0.52,-0.52 0.734,-1.16 0.211,-1.68 L 16.159,16.262 c -0.52,-0.523 -1.031,-0.18 -1.555,0.34 m 3.34,3.344 c 0.266,-0.266 0.52,-0.43 0.785,-0.164 l 14.492,14.5 c 0.266,0.27 0.055,0.477 -0.211,0.738 -0.27,0.266 -0.477,0.469 -0.738,0.207 L 17.78,20.727 c -0.266,-0.266 -0.105,-0.516 0.164,-0.781 m 0,0" style="fill:#f9f9f9;fill-opacity:1;stroke:none;fill-rule:nonzero"/>
   </g>
  </g>
 </g>
 <g>
  
 </g>
</svg>
